X:3
T:Rock and a wee Pickle Tow
Z:Jack Campin, http://www.campin.me.uk
F:http://www.campin.me.uk/Music/Flodden.abc
I:last edit 28-05-2013
N:the town march of Linlithgow
S:Angus Mackay, The Piper's Assistant, G.S. MacLennan's copy
M:6/8
L:1/8
K:AMix
e|:\
A>AA ABc|cac Bcd|ecA c2B|cAA A2e|
A>AA ABc|cac Bcd|ecA c2B|cAA A3:|
Aff  Aff|Aff fec|Aee Aee|Aee ecA|
dcd  ece|eac Bcd|ecA c2B|cAA A3:|

